svg/300/outlined/universal_local-fill.svg

<svg xmlns="http://www.w3.org/2000/svg" width="48" height="48" viewBox="0 -960 960 960"><path d="M157.694-180.001q-23.529 0-40.611-17.082-17.082-17.082-17.082-40.611v-484.612q0-23.529 17.082-40.611 17.082-17.082 40.611-17.082h644.612q23.529 0 40.611 17.082 17.082 17.082 17.082 40.611v484.612q0 23.529-17.082 40.611-17.082 17.082-40.611 17.082H157.694ZM479.926-480q-16.003 0-27.464-11.536Q441-503.071 441-519.074q0-16.002 11.536-27.464 11.536-11.461 27.538-11.461 16.003 0 27.464 11.535Q519-534.928 519-518.925q0 16.002-11.536 27.464Q495.928-480 479.926-480ZM480-284.617q78.999-66.538 117.691-124.386 38.692-57.849 38.692-106.338 0-73.812-47.538-116.927Q541.307-675.383 480-675.383t-108.845 43.115q-47.538 43.115-47.538 116.927 0 48.489 38.692 106.338Q401.001-351.155 480-284.617Z"/></svg>

<svg xmlns="http://www.w3.org/2000/svg" width="48" height="48" viewBox="0 -960 960 960"><path d="M157.69-180q-23.53 0-40.61-17.08T100-237.69v-484.62q0-23.53 17.08-40.61T157.69-780h644.62q23.53 0 40.61 17.08T860-722.31v484.62q0 23.53-17.08 40.61T802.31-180H157.69Zm322.24-300q-16.01 0-27.47-11.54Q441-503.07 441-519.07q0-16.01 11.54-27.47Q464.07-558 480.07-558q16.01 0 27.47 11.54Q519-534.93 519-518.93q0 16.01-11.54 27.47Q495.93-480 479.93-480Zm.07 195.38Q559-351.16 597.69-409q38.69-57.85 38.69-106.34 0-73.81-47.53-116.93-47.54-43.11-108.85-43.11-61.31 0-108.85 43.11-47.53 43.12-47.53 116.93 0 48.49 38.69 106.34Q401-351.16 480-284.62Z"/></svg>
